src/xmb/monochrome/menu_room_relay.svg

<?xml version="1.0" encoding="UTF-8" standalone="no"?>
<svg
   xmlns:dc="http://purl.org/dc/elements/1.1/"
   xmlns:cc="http://creativecommons.org/ns#"
   xmlns:rdf="http://www.w3.org/1999/02/22-rdf-syntax-ns#"
   xmlns:svg="http://www.w3.org/2000/svg"
   xmlns="http://www.w3.org/2000/svg"
   xmlns:sodipodi="http://sodipodi.sourceforge.net/DTD/sodipodi-0.dtd"
   xmlns:inkscape="http://www.inkscape.org/namespaces/inkscape"
   xml:space="preserve"
   enable-background="new 0 128 64 64"
   viewBox="0 128 64 64"
   height="64px"
   width="64px"
   y="0px"
   x="0px"
   id="svg2"
   version="1.1"
   sodipodi:docname="menu_room_relay.svg"
   inkscape:version="0.92.3 (2405546, 2018-03-11)"><sodipodi:namedview
     pagecolor="#808080"
     bordercolor="#666666"
     borderopacity="1"
     objecttolerance="10"
     gridtolerance="10"
     guidetolerance="10"
     inkscape:pageopacity="0"
     inkscape:pageshadow="2"
     inkscape:window-width="1920"
     inkscape:window-height="1001"
     id="namedview6"
     showgrid="true"
     inkscape:zoom="14.75"
     inkscape:cx="37.660283"
     inkscape:cy="31.807508"
     inkscape:window-x="-9"
     inkscape:window-y="-9"
     inkscape:window-maximized="1"
     inkscape:current-layer="svg2"><inkscape:grid
       type="xygrid"
       id="grid816" /></sodipodi:namedview><metadata
     id="metadata8"><rdf:RDF><cc:Work
         rdf:about=""><dc:format>image/svg+xml</dc:format><dc:type
           rdf:resource="http://purl.org/dc/dcmitype/StillImage" /><dc:title /></cc:Work></rdf:RDF></metadata><defs
     id="defs6" /><rect
     style="opacity:1;vector-effect:none;fill:none;fill-opacity:1;fill-rule:nonzero;stroke:#ffffff;stroke-width:4;stroke-linecap:round;stroke-linejoin:miter;stroke-miterlimit:4;stroke-dasharray:none;stroke-dashoffset:0;stroke-opacity:1;paint-order:markers stroke fill"
     id="rect881"
     width="32"
     height="40"
     x="16"
     y="140"
     ry="1.7029978" /><path
     style="opacity:1;vector-effect:none;fill:#ffffff;fill-opacity:1;fill-rule:nonzero;stroke:none;stroke-width:3.93333316;stroke-linecap:round;stroke-linejoin:miter;stroke-miterlimit:4;stroke-dasharray:none;stroke-dashoffset:0;stroke-opacity:1;paint-order:markers stroke fill"
     d="M 21.609375 15.957031 C 20.71757 15.957031 20 16.674601 20 17.566406 L 20 22.347656 C 20 23.239461 20.71757 23.957031 21.609375 23.957031 L 42.390625 23.957031 C 43.28243 23.957031 44 23.239461 44 22.347656 L 44 17.566406 C 44 16.674601 43.28243 15.957031 42.390625 15.957031 L 21.609375 15.957031 z M 22 18.957031 L 35 18.957031 L 35 20.957031 L 22 20.957031 L 22 18.957031 z M 40 18.957031 A 1 1 0 0 1 41 19.957031 A 1 1 0 0 1 40 20.957031 A 1 1 0 0 1 39 19.957031 A 1 1 0 0 1 40 18.957031 z "
     transform="translate(0,128)"
     id="rect838" /><path
     id="path827"
     d="M 21.609375,153.95703 C 20.71757,153.95703 20,154.6746 20,155.56641 v 4.78125 c 0,0.8918 0.71757,1.60937 1.609375,1.60937 h 20.78125 C 43.28243,161.95703 44,161.23946 44,160.34766 v -4.78125 c 0,-0.89181 -0.71757,-1.60938 -1.609375,-1.60938 z m 0.390625,3 h 13 v 2 H 22 Z m 18,0 a 1,1 0 0 1 1,1 1,1 0 0 1 -1,1 1,1 0 0 1 -1,-1 1,1 0 0 1 1,-1 z"
     style="opacity:1;vector-effect:none;fill:#ffffff;fill-opacity:1;fill-rule:nonzero;stroke:none;stroke-width:3.93333316;stroke-linecap:round;stroke-linejoin:miter;stroke-miterlimit:4;stroke-dasharray:none;stroke-dashoffset:0;stroke-opacity:1;paint-order:markers stroke fill"
     inkscape:connector-curvature="0" /><path
     inkscape:connector-curvature="0"
     style="opacity:1;vector-effect:none;fill:#ffffff;fill-opacity:1;fill-rule:nonzero;stroke:none;stroke-width:3.93333316;stroke-linecap:round;stroke-linejoin:miter;stroke-miterlimit:4;stroke-dasharray:none;stroke-dashoffset:0;stroke-opacity:1;paint-order:markers stroke fill"
     d="M 21.609375,163.95703 C 20.71757,163.95703 20,164.6746 20,165.56641 v 4.78125 c 0,0.8918 0.71757,1.60937 1.609375,1.60937 h 20.78125 C 43.28243,171.95703 44,171.23946 44,170.34766 v -4.78125 c 0,-0.89181 -0.71757,-1.60938 -1.609375,-1.60938 z m 0.390625,3 h 13 v 2 H 22 Z m 18,0 a 1,1 0 0 1 1,1 1,1 0 0 1 -1,1 1,1 0 0 1 -1,-1 1,1 0 0 1 1,-1 z"
     id="path829" /></svg>

<svg xmlns="http://www.w3.org/2000/svg" xml:space="preserve" width="64" height="64" viewBox="0 128 64 64"><rect width="32" height="40" x="16" y="140" ry="1.703" style="opacity:1;vector-effect:none;fill:none;fill-opacity:1;fill-rule:nonzero;stroke:#fff;stroke-width:4;stroke-linecap:round;stroke-linejoin:miter;stroke-miterlimit:4;stroke-dasharray:none;stroke-dashoffset:0;stroke-opacity:1;paint-order:markers stroke fill"/><path d="M21.61 15.957c-.892 0-1.61.718-1.61 1.61v4.78c0 .892.718 1.61 1.61 1.61h20.78c.892 0 1.61-.718 1.61-1.61v-4.78c0-.892-.718-1.61-1.61-1.61zm.39 3h13v2H22zm18 0a1 1 0 0 1 1 1 1 1 0 0 1-1 1 1 1 0 0 1-1-1 1 1 0 0 1 1-1" style="opacity:1;vector-effect:none;fill:#fff;fill-opacity:1;fill-rule:nonzero;stroke:none;stroke-width:3.93333316;stroke-linecap:round;stroke-linejoin:miter;stroke-miterlimit:4;stroke-dasharray:none;stroke-dashoffset:0;stroke-opacity:1;paint-order:markers stroke fill" transform="translate(0 128)"/><path d="M21.61 153.957c-.892 0-1.61.718-1.61 1.61v4.78c0 .892.718 1.61 1.61 1.61h20.78c.892 0 1.61-.718 1.61-1.61v-4.78c0-.892-.718-1.61-1.61-1.61zm.39 3h13v2H22Zm18 0a1 1 0 0 1 1 1 1 1 0 0 1-1 1 1 1 0 0 1-1-1 1 1 0 0 1 1-1m-18.39 7c-.892 0-1.61.718-1.61 1.61v4.78c0 .892.718 1.61 1.61 1.61h20.78c.892 0 1.61-.718 1.61-1.61v-4.78c0-.892-.718-1.61-1.61-1.61zm.39 3h13v2H22Zm18 0a1 1 0 0 1 1 1 1 1 0 0 1-1 1 1 1 0 0 1-1-1 1 1 0 0 1 1-1" style="opacity:1;vector-effect:none;fill:#fff;fill-opacity:1;fill-rule:nonzero;stroke:none;stroke-width:3.93333316;stroke-linecap:round;stroke-linejoin:miter;stroke-miterlimit:4;stroke-dasharray:none;stroke-dashoffset:0;stroke-opacity:1;paint-order:markers stroke fill"/></svg>
